X:1
T:Title
%%score { 1 | ( 2 3 ) }
L:1/8
M:6/8
K:F
V:1 treble nm="Grand Piano"
V:2 bass 
V:3 bass 
V:1
 z3 z2[Q:1/4=100] C | F2 F FEF | [B,EG]3 [A,F]2 [A,F] | [DFB]2 [DFB] [DFB]2 [CGB] | A3- A2 A | %5
 G2 G F2 F | B3 A2 G | F2 F .[=B,DF]2 [B,DF] | [CEG]3- [CEG]2 C | [CGB]2 [CGB] [CFA]2 [CFA] | %10
 [B,EG]3 [A,F]2 [A,F] | [Fd]2 [Fd] [Fd]2 [Fd] | [Fc]3- [Fc]2 [Fc] | [Af]2 [Af] e2 e | d3 c2 c | %15
 [Fd][Fd][Fd] [DF]2 [DG] |[M:7/8] [^CEA]-[CEA]-[CEA]- [CEA]3 c |[M:3/4] c3 A2 A | A3 F2 [C_EF] | %19
 [B,DG][B,DG] [B,DG] [A,CF]2 [G,CE] |[M:5/8] [F,A,CF]-[F,A,CF]- [F,A,CF]3 |] %21
V:2
 z3 z2 [F,A,] | [F,A,C]2 [F,A,C] [A,C][G,B,][F,A,C] | C,3 F,2 F, | B,,2 C, D,2 E, | %4
 [F,CF]3- [F,CF]2 [F,CF] | [B,CE]2 [B,CE] [A,C]2 [A,C] | [G,CE]3 [F,CF]2 [E,A,^C] | %7
 [D,A,D]2 [D,A,D] z EG,, | C,3- C,2 C, | E,2 E, F,2 F, | C,3 F,2 F, | %11
 [B,,B,]2 [C,B,] [D,B,]2 [E,B,] | [F,A,]3- [F,A,]2 [F,A,] | %13
 [D,A,]2 [D,D][K:treble] [A,^CG]2 [A,CG] | [B,DF]3 [F,A,F]2 [F,A,F] | %15
 [B,,B,][B,,B,][B,,B,] [B,,B,]2 B,, |[M:7/8] A,,-A,,-A,,- A,,3[K:treble] A |[M:3/4] A3 F2 C | %18
 C3[K:bass] A,2 A,, | B,,B,, B,, C,2 C, |[M:5/8] F,,-F,,- F,,3 |] %21
V:3
 x6 | x6 | x6 | x6 | x6 | x6 | x6 | z3 .G,,3 | x6 | x6 | x6 | x6 | x6 | x3[K:treble] x3 | x6 | x6 | %16
[M:7/8] x6[K:treble] x |[M:3/4] x6 | x3[K:bass] x3 | x6 |[M:5/8] x5 |] %21

